packages/astro-components-stencil/src/icons/nature.svg

<svg width="24" height="24" viewBox="0 0 24 24" fill="none" xmlns="http://www.w3.org/2000/svg">
<path d="M13 16.12C16.37 15.72 19.01 12.93 19.16 9.48002C19.33 5.61002 16.14 2.23002 12.27 2.17002C8.35 2.12002 5.17 5.27002 5.17 9.17002C5.17 12.64 7.69 15.51 11 16.06V20H6C5.45 20 5 20.45 5 21C5 21.55 5.45 22 6 22H18C18.55 22 19 21.55 19 21C19 20.45 18.55 20 18 20H13V16.12Z" fill="black"/>
</svg>

<svg xmlns="http://www.w3.org/2000/svg" viewBox="0 0 24 24"><g xmlns="http://www.w3.org/2000/svg" id="nature" fill-rule="nonzero">
            <path d="M13 16.12c3.37-.4 6.01-3.19 6.16-6.64.17-3.87-3.02-7.25-6.89-7.31-3.92-.05-7.1 3.1-7.1 7A6.98 6.98 0 0011 16.06V20H6c-.55 0-1 .45-1 1s.45 1 1 1h12c.55 0 1-.45 1-1s-.45-1-1-1h-5v-3.88z"/>
        </g></svg>
